public/new/clock.svg

<svg fill="none" height="18" viewBox="0 0 19 18" width="19" xmlns="http://www.w3.org/2000/svg"><g fill="#a9aab7"><path d="m9.70019 17.0625c-4.44749 0-8.06249-3.615-8.06249-8.0625s3.615-8.0625 8.06249-8.0625c4.44751 0 8.06251 3.615 8.06251 8.0625s-3.615 8.0625-8.06251 8.0625zm0-15c-3.82499 0-6.93749 3.1125-6.93749 6.9375s3.1125 6.9375 6.93749 6.9375c3.82501 0 6.93751-3.1125 6.93751-6.9375s-3.1125-6.9375-6.93751-6.9375z"/><path d="m12.4822 11.9478c-.0975 0-.195-.0225-.285-.0825l-2.32501-1.3875c-.5775-.345-1.005-1.10249-1.005-1.76999v-3.075c0-.3075.255-.5625.5625-.5625s.5625.255.5625.5625v3.075c0 .27.22501.6675.45751.8025l2.325 1.38749c.27.1575.3525.5025.195.7725-.1125.18-.3.2775-.4875.2775z"/></g></svg>

<svg width="19" height="18" viewBox="0 0 19 18" fill="none" xmlns="http://www.w3.org/2000/svg">
<path d="M9.70019 17.0625C5.2527 17.0625 1.6377 13.4475 1.6377 9C1.6377 4.5525 5.2527 0.9375 9.70019 0.9375C14.1477 0.9375 17.7627 4.5525 17.7627 9C17.7627 13.4475 14.1477 17.0625 9.70019 17.0625ZM9.70019 2.0625C5.8752 2.0625 2.7627 5.175 2.7627 9C2.7627 12.825 5.8752 15.9375 9.70019 15.9375C13.5252 15.9375 16.6377 12.825 16.6377 9C16.6377 5.175 13.5252 2.0625 9.70019 2.0625Z" fill="#A9AAB7"/>
<path d="M12.4822 11.9478C12.3847 11.9478 12.2872 11.9253 12.1972 11.8653L9.87219 10.4778C9.29469 10.1328 8.86719 9.37531 8.86719 8.70781V5.63281C8.86719 5.32531 9.12219 5.07031 9.42969 5.07031C9.73719 5.07031 9.99219 5.32531 9.99219 5.63281V8.70781C9.99219 8.97781 10.2172 9.37531 10.4497 9.51031L12.7747 10.8978C13.0447 11.0553 13.1272 11.4003 12.9697 11.6703C12.8572 11.8503 12.6697 11.9478 12.4822 11.9478Z" fill="#A9AAB7"/>
</svg>
